packages/ui-icons/svg/Line/next-unread.svg

<svg viewBox="0 0 1920 1920" version="1.1" xmlns="http://www.w3.org/2000/svg">
    <path d="M0,373.397333 L0,1760.064 L1706.66667,1760.064 L1706.66667,956.864 L1600,956.864 L1600,1559.424 L1294.4,1192.59733 L1212.37333,1260.864 L1539.41333,1653.39733 L167.253333,1653.39733 L494.293333,1260.864 L412.266667,1192.59733 L106.666667,1559.424 L106.666667,661.824 L853.333333,1352.704 L1343.89333,898.944 L1271.57333,820.544 L853.333333,1207.31733 L106.666667,516.437333 L106.666667,480.064 L1123.2,480.064 L1123.2,373.397333 L0,373.397333 Z M1383.95733,243.872 C1447.104,186.165333 1529.45067,156.512 1614.25067,160.352 C1699.584,164.192 1778.41067,200.992 1836.11733,264.032 C1893.824,327.072 1923.47733,408.885333 1919.63733,494.325333 C1915.904,579.658667 1879.104,658.485333 1815.95733,716.192 C1756.544,770.592 1680.384,800.032 1600.384,800.032 C1595.47733,800.032 1590.67733,799.925333 1585.77067,799.712 C1500.33067,795.872 1421.61067,759.072 1363.904,696.032 C1306.19733,632.992 1276.544,551.178667 1280.27733,465.738667 C1284.11733,380.405333 1320.91733,301.578667 1383.95733,243.872 Z M1599.744,266.698667 C1546.41067,266.698667 1495.63733,286.325333 1456.064,322.592 C1413.93067,361.098667 1389.39733,413.578667 1386.83733,470.538667 C1384.27733,527.498667 1404.11733,581.898667 1442.51733,624.032 C1481.024,666.058667 1533.61067,690.592 1590.57067,693.152 C1647.424,696.032 1701.93067,675.872 1743.95733,637.472 C1786.09067,598.965333 1810.624,546.378667 1813.07733,489.525333 C1815.63733,432.565333 1795.904,378.058667 1757.39733,336.032 C1718.99733,294.005333 1666.41067,269.472 1609.45067,266.912 C1606.25067,266.698667 1603.05067,266.698667 1599.744,266.698667 Z" stroke="none" stroke-width="1" fill-rule="evenodd"/>
</svg>

<svg viewBox="0 0 1920 1920" xmlns="http://www.w3.org/2000/svg">
    <path d="M0 373.397v1386.667h1706.667v-803.2H1600v602.56l-305.6-366.827-82.027 68.267 327.04 392.533H167.253l327.04-392.533-82.026-68.267-305.6 366.827v-897.6l746.666 690.88 490.56-453.76-72.32-78.4-418.24 386.773-746.666-690.88v-36.373H1123.2V373.397H0Zm1383.957-129.525c63.147-57.707 145.494-87.36 230.294-83.52 85.333 3.84 164.16 40.64 221.866 103.68 57.707 63.04 87.36 144.853 83.52 230.293-3.733 85.334-40.533 164.16-103.68 221.867-59.413 54.4-135.573 83.84-215.573 83.84-4.907 0-9.707-.107-14.613-.32-85.44-3.84-164.16-40.64-221.867-103.68-57.707-63.04-87.36-144.853-83.627-230.293 3.84-85.334 40.64-164.16 103.68-221.867Zm215.787 22.827c-53.333 0-104.107 19.626-143.68 55.893-42.133 38.507-66.667 90.987-69.227 147.947-2.56 56.96 17.28 111.36 55.68 153.493 38.507 42.027 91.094 66.56 148.054 69.12 56.853 2.88 111.36-17.28 153.386-55.68 42.134-38.507 66.667-91.093 69.12-147.947 2.56-56.96-17.173-111.466-55.68-153.493-38.4-42.027-90.986-66.56-147.946-69.12-3.2-.213-6.4-.213-9.707-.213Z" fill-rule="evenodd"/>
</svg>
